X:10
T:Polska efter Niklas Larsson 
T:(SvL Bohuslän 10)
R:Polska
S:Niklas Larsson
B:Svenska Låtar Bohuslän
O:Svarteborg, Bohuslän
M:3/4
L:1/8
K:A
A>B c<d e<[ec]|ef [eA]2 [ec]2|(3dBd (3cAc (3BAG|A>B (3[ce]A[ce] [ce]>>(B|
A)>B c<d e<[ec]|ef [eA]2 [ec]2|(3dBd (3cAc (3BAG|1 (3ABc [AA]4:|2(3ABc [AA]3 f||
|:af/a/ (3=geg (3fed|(3f=gf [ee]2 A>e|af/a/ (3=geg (3fed|(3f=gf [ee]2 A>e|
af/a/ (3=geg (3fed|(3f=gf [ee]2 A>e|(3dBd (3cAc (3BAG|1(3ABc [AA]3 f:|2 (3ABc [AA]4||

